.local/share/icons/Gruvbox-Plus-Dark/mimetypes/scalable/text-x-sass.svg

<svg width="256" height="256" viewBox="0 0 256 256" fill="none" xmlns="http://www.w3.org/2000/svg">
<g opacity="0.4" filter="url(#filter0_f)">
<path d="M55.0839 15.5636H155.608L216.009 75.7129L216.011 224.609C216.011 233.52 208.749 240.737 199.838 240.737H55.0838C46.1734 240.737 39 233.564 39 224.654V31.6474C39 22.737 46.1734 15.5636 55.0838 15.5636H55.0839Z" fill="#282828"/>
</g>
<path d="M55.0839 15H155.608L216.009 75.1493L216.011 224.045C216.011 232.956 208.749 240.174 199.838 240.174H55.0838C46.1734 240.174 39 233 39 224.09V31.0838C39 22.1734 46.1734 15 55.0838 15H55.0839Z" fill="#ebdbb2"/>
<path opacity="0.2" d="M55.0839 15H155.608L216.009 75.1493L216.011 224.045C216.011 232.956 208.749 240.174 199.838 240.174H55.0838C46.1734 240.174 39 233 39 224.09V31.0838C39 22.1734 46.1734 15 55.0838 15H55.0839Z" fill="url(#paint0_linear)"/>
<path fill-rule="evenodd" clip-rule="evenodd" d="M155.609 22.9787H55.0839C50.58 22.9787 46.9787 26.5799 46.9787 31.0838V224.09C46.9787 228.594 50.5799 232.195 55.0838 232.195H199.838C204.371 232.195 208.032 228.521 208.032 224.046V75.1493L155.609 22.9787ZM155.608 15H55.0839C46.1735 15 39 22.1734 39 31.0838V224.09C39 233 46.1734 240.174 55.0838 240.174H199.838C208.749 240.174 216.011 232.956 216.011 224.045L216.009 75.1493L155.608 15Z" fill="url(#paint1_linear)"/>
<path d="M174.219 135.184C170.2 135.189 166.234 136.108 162.623 137.871C161.429 135.509 160.238 133.404 160.026 131.862C159.792 130.063 159.512 128.963 159.792 126.812C160.072 124.662 161.334 121.597 161.312 121.366C161.289 121.132 161.032 120.032 158.462 120.009C155.892 119.986 153.666 120.5 153.409 121.181C153.151 121.857 152.66 123.399 152.335 124.991C151.889 127.326 147.191 135.675 144.504 140.045C143.635 138.34 142.89 136.843 142.728 135.649C142.493 133.85 142.21 132.75 142.493 130.599C142.773 128.449 144.035 125.384 144.013 125.153C143.986 124.919 143.729 123.819 141.159 123.796C138.589 123.774 136.367 124.288 136.11 124.968C135.853 125.644 135.573 127.236 135.032 128.778C134.496 130.32 128.252 144.255 126.615 147.853C125.776 149.705 125.051 151.175 124.537 152.181C124.537 152.181 124.514 152.249 124.442 152.37C124 153.231 123.739 153.7 123.739 153.7V153.723C123.391 154.354 123.017 154.94 122.832 154.94C122.688 154.94 122.431 153.254 122.877 150.964C123.811 146.126 126.033 138.597 126.011 138.34C126.011 138.196 126.426 136.889 124.559 136.212C122.734 135.532 122.08 136.654 121.917 136.654C121.755 136.654 121.638 137.051 121.638 137.051C121.638 137.051 123.671 128.589 117.756 128.589C114.063 128.589 108.965 132.633 106.44 136.28C103.57 137.843 100.703 139.41 97.8378 140.982C96.4583 141.753 95.0296 142.524 93.6992 143.25C93.6047 143.155 93.5103 143.038 93.4158 142.947C86.2649 135.297 73.0289 129.896 73.592 119.635C73.7999 115.893 75.0888 106.074 99.0057 94.1495C118.69 84.4474 134.356 87.1347 137.066 93.0988C140.947 101.61 128.675 117.413 108.334 119.707C100.57 120.569 96.5037 117.579 95.4756 116.456C94.3984 115.285 94.2359 115.217 93.8391 115.451C93.1852 115.799 93.6047 116.849 93.8391 117.462C94.4438 119.049 96.9459 121.857 101.179 123.233C104.921 124.45 114.014 125.13 125.028 120.875C137.349 116.105 146.979 102.846 144.152 91.7419C141.322 80.4751 122.62 76.756 104.921 83.0452C94.3985 86.7869 82.988 92.6793 74.7826 100.348C65.0314 109.464 63.4893 117.39 64.1243 120.708C66.392 132.493 82.6403 140.162 89.1373 145.842C88.8123 146.031 88.5061 146.194 88.2491 146.334C84.9987 147.948 72.6094 154.422 69.5215 161.274C66.0178 169.037 70.0846 174.601 72.7719 175.349C81.1209 177.662 89.7005 173.501 94.304 166.626C98.915 159.755 98.3481 150.824 96.224 146.731C96.2008 146.679 96.1688 146.632 96.1295 146.591L98.6769 145.094C100.34 144.111 101.973 143.204 103.379 142.452C102.585 144.629 101.999 147.222 101.716 150.964C101.368 155.359 103.167 161.063 105.529 163.308C106.58 164.29 107.82 164.313 108.613 164.313C111.372 164.313 112.612 162.023 113.992 159.309C115.674 155.99 117.193 152.132 117.193 152.132C117.193 152.132 115.303 162.563 120.443 162.563C122.314 162.563 124.208 160.129 125.051 158.889V158.912L125.19 158.678L125.493 158.186V158.141C126.241 156.829 127.927 153.863 130.429 148.93C133.653 142.569 136.763 134.621 136.763 134.621C136.763 134.621 137.043 136.56 138.003 139.788C138.562 141.677 139.734 143.76 140.668 145.771C139.919 146.825 139.451 147.407 139.451 147.407L139.477 147.43C138.869 148.223 138.215 149.093 137.489 149.932C134.942 152.971 131.899 156.455 131.48 157.461C130.988 158.655 131.105 159.521 132.039 160.22C132.719 160.734 133.936 160.806 135.176 160.734C136.791 160.643 138.379 160.28 139.874 159.66C141.318 159.151 142.68 158.434 143.918 157.532C146.42 155.684 147.94 153.042 147.8 149.558C147.728 147.641 147.097 145.725 146.326 143.926C146.56 143.597 146.772 143.268 147.006 142.943C150.956 137.168 154.017 130.83 154.017 130.83C154.017 130.83 154.297 132.773 155.257 136C155.725 137.637 156.682 139.413 157.524 141.141C153.809 144.157 151.515 147.664 150.699 149.958C149.225 154.21 150.37 156.13 152.547 156.572C153.529 156.784 154.928 156.315 155.96 155.873C157.509 155.364 158.968 154.614 160.284 153.651C162.786 151.803 165.197 149.229 165.053 145.752C164.949 144.144 164.585 142.564 163.976 141.073C167.136 139.761 171.203 139.039 176.392 139.648C187.523 140.955 189.719 147.898 189.299 150.82C188.876 153.745 186.54 155.333 185.769 155.824C184.998 156.315 184.737 156.478 184.809 156.829C184.903 157.344 185.278 157.321 185.932 157.226C186.842 157.064 191.775 154.868 191.986 149.49C192.338 142.615 185.788 135.108 174.219 135.18V135.184ZM88.3663 164.128C84.6737 168.149 79.5297 169.669 77.3073 168.384C74.9262 167.004 75.8598 161.063 80.3952 156.811C83.1543 154.214 86.7071 151.806 89.0693 150.332C89.606 150.004 90.3997 149.539 91.3597 148.953C91.5222 148.858 91.6167 148.813 91.6167 148.813C91.8057 148.7 91.9947 148.579 92.1799 148.462C93.8391 154.543 92.2479 159.895 88.3663 164.128V164.128ZM115.254 145.842C113.969 148.979 111.278 156.996 109.641 156.554C108.243 156.176 107.374 150.098 109.362 144.089C110.367 141.073 112.499 137.474 113.735 136.072C115.745 133.827 117.968 133.079 118.504 133.993C119.185 135.184 116.048 143.881 115.254 145.842ZM137.44 156.459C136.903 156.739 136.389 156.924 136.155 156.784C135.992 156.693 136.389 156.319 136.389 156.319C136.389 156.319 139.171 153.326 140.271 151.973C140.902 151.175 141.65 150.238 142.444 149.187V149.49C142.444 153.069 138.986 155.476 137.44 156.459V156.459ZM154.554 152.555C154.157 152.275 154.229 151.338 155.559 148.416C156.077 147.271 157.29 145.355 159.373 143.503C159.607 144.255 159.769 144.977 159.747 145.657C159.724 150.17 156.496 151.856 154.554 152.555Z" fill="url(#paint2_linear)"/>
<path opacity="0.25" d="M155.608 17V61.2306C155.608 70.141 162.867 77.1605 171.777 77.1605L216.009 77.1493V75.1493L155.608 17Z" fill="#282828"/>
<path d="M155.608 15V59.2306C155.608 68.141 162.867 75.1605 171.777 75.1605L216.009 75.1493L155.608 15Z" fill="url(#paint3_linear)"/>
<defs>
<filter id="filter0_f" x="23.8778" y="0.441412" width="207.255" height="255.418" filterUnits="userSpaceOnUse" color-interpolation-filters="sRGB">
<feFlood flood-opacity="0" result="BackgroundImageFix"/>
<feBlend mode="normal" in="SourceGraphic" in2="BackgroundImageFix" result="shape"/>
<feGaussianBlur stdDeviation="7.5611" result="effect1_foregroundBlur"/>
</filter>
<linearGradient id="paint0_linear" x1="39" y1="15" x2="39" y2="240.174" gradientUnits="userSpaceOnUse">
<stop offset="1e-07" stop-color="#fb4934"/>
<stop offset="0.5" stop-color="#fb4934"/>
<stop offset="1" stop-color="#cc241d"/>
</linearGradient>
<linearGradient id="paint1_linear" x1="39" y1="15" x2="39" y2="240.174" gradientUnits="userSpaceOnUse">
<stop offset="1e-07" stop-color="#fb4934"/>
<stop offset="1" stop-color="#cc241d"/>
</linearGradient>
<linearGradient id="paint2_linear" x1="64" y1="80" x2="64" y2="175.992" gradientUnits="userSpaceOnUse">
<stop offset="1e-07" stop-color="#fb4934"/>
<stop offset="1" stop-color="#cc241d"/>
</linearGradient>
<linearGradient id="paint3_linear" x1="155.608" y1="15" x2="155.608" y2="75.1605" gradientUnits="userSpaceOnUse">
<stop offset="1e-07" stop-color="#fb4934"/>
<stop offset="1" stop-color="#cc241d"/>
</linearGradient>
</defs>
</svg>

<svg width="256" height="256" fill="none" version="1.1" viewBox="0 0 256 256" xmlns="http://www.w3.org/2000/svg">
  <path d="m55.08 15h100.5l60.4 60.15 2e-3 148.9c0 8.911-7.262 16.13-16.17 16.13h-144.8c-8.91 0-16.08-7.174-16.08-16.08v-193c0-8.91 7.173-16.08 16.08-16.08h1e-4z" fill="#ebdbb2"/>
  <path d="m55.08 15h100.5l60.4 60.15 2e-3 148.9c0 8.911-7.262 16.13-16.17 16.13h-144.8c-8.91 0-16.08-7.174-16.08-16.08v-193c0-8.91 7.173-16.08 16.08-16.08h1e-4z" fill="url(#paint0_linear)" opacity=".1"/>
  <path d="m155.6 22.98h-100.5c-4.504 0-8.105 3.601-8.105 8.105v193c0 4.504 3.601 8.105 8.105 8.105h144.8c4.533 0 8.194-3.674 8.194-8.149v-148.9l-52.42-52.17zm-1e-3 -7.979h-100.5c-8.91 0-16.08 7.173-16.08 16.08v193c0 8.91 7.173 16.08 16.08 16.08h144.8c8.911 0 16.17-7.218 16.17-16.13l-2e-3 -148.9-60.4-60.15z" clip-rule="evenodd" fill="url(#paint1_linear)" fill-rule="evenodd"/>
  <path d="m174.2 135.2c-4.019 5e-3 -7.985 0.924-11.6 2.687-1.194-2.362-2.385-4.467-2.597-6.009-0.234-1.799-0.514-2.899-0.234-5.05 0.28-2.15 1.542-5.215 1.52-5.446-0.023-0.234-0.28-1.334-2.85-1.357s-4.796 0.491-5.053 1.172c-0.258 0.676-0.749 2.218-1.074 3.81-0.446 2.335-5.144 10.68-7.831 15.05-0.869-1.705-1.614-3.202-1.776-4.396-0.235-1.799-0.518-2.899-0.235-5.05 0.28-2.15 1.542-5.215 1.52-5.446-0.027-0.234-0.284-1.334-2.854-1.357-2.57-0.022-4.792 0.492-5.049 1.172-0.257 0.676-0.537 2.268-1.078 3.81-0.536 1.542-6.78 15.48-8.417 19.08-0.839 1.852-1.564 3.322-2.078 4.328 0 0-0.023 0.068-0.095 0.189-0.442 0.861-0.703 1.33-0.703 1.33v0.023c-0.348 0.631-0.722 1.217-0.907 1.217-0.144 0-0.401-1.686 0.045-3.976 0.934-4.838 3.156-12.37 3.134-12.62 0-0.144 0.415-1.451-1.452-2.128-1.825-0.68-2.479 0.442-2.642 0.442-0.162 0-0.279 0.397-0.279 0.397s2.033-8.462-3.882-8.462c-3.693 0-8.791 4.044-11.32 7.691-2.87 1.563-5.737 3.13-8.602 4.702-1.38 0.771-2.808 1.542-4.139 2.268-0.0945-0.095-0.1889-0.212-0.2834-0.303-7.151-7.65-20.39-13.05-19.82-23.31 0.2079-3.742 1.497-13.56 25.41-25.49 19.68-9.702 35.35-7.015 38.06-1.051 3.881 8.511-8.391 24.31-28.73 26.61-7.764 0.862-11.83-2.128-12.86-3.251-1.077-1.171-1.24-1.239-1.636-1.005-0.6539 0.348-0.2344 1.398 0 2.011 0.6047 1.587 3.107 4.395 7.34 5.771 3.742 1.217 12.84 1.897 23.85-2.358 12.32-4.77 21.95-18.03 19.12-29.13-2.83-11.27-21.53-14.99-39.23-8.697-10.52 3.742-21.93 9.634-30.14 17.3-9.751 9.116-11.29 17.04-10.66 20.36 2.268 11.78 18.52 19.45 25.01 25.13-0.325 0.189-0.6312 0.352-0.8882 0.492-3.25 1.614-15.64 8.088-18.73 14.94-3.504 7.763 0.5631 13.33 3.25 14.08 8.349 2.313 16.93-1.848 21.53-8.723 4.611-6.871 4.044-15.8 1.92-19.9-0.0232-0.052-0.0552-0.099-0.0945-0.14l2.547-1.497c1.663-0.983 3.296-1.89 4.702-2.642-0.794 2.177-1.38 4.77-1.663 8.512-0.348 4.395 1.451 10.1 3.813 12.34 1.051 0.982 2.291 1.005 3.084 1.005 2.759 0 3.999-2.29 5.379-5.004 1.682-3.319 3.201-7.177 3.201-7.177s-1.89 10.43 3.25 10.43c1.871 0 3.765-2.434 4.608-3.674v0.023l0.139-0.234 0.303-0.492v-0.045c0.748-1.312 2.434-4.278 4.936-9.211 3.224-6.361 6.334-14.31 6.334-14.31s0.28 1.939 1.24 5.167c0.559 1.889 1.731 3.972 2.665 5.983-0.749 1.054-1.217 1.636-1.217 1.636l0.026 0.023c-0.608 0.793-1.262 1.663-1.988 2.502-2.547 3.039-5.59 6.523-6.009 7.529-0.492 1.194-0.375 2.06 0.559 2.759 0.68 0.514 1.897 0.586 3.137 0.514 1.615-0.091 3.203-0.454 4.698-1.074 1.444-0.509 2.806-1.226 4.044-2.128 2.502-1.848 4.022-4.49 3.882-7.974-0.072-1.917-0.703-3.833-1.474-5.632 0.234-0.329 0.446-0.658 0.68-0.983 3.95-5.775 7.011-12.11 7.011-12.11s0.28 1.943 1.24 5.17c0.468 1.637 1.425 3.413 2.267 5.141-3.715 3.016-6.009 6.523-6.825 8.817-1.474 4.252-0.329 6.172 1.848 6.614 0.982 0.212 2.381-0.257 3.413-0.699 1.549-0.509 3.008-1.259 4.324-2.222 2.502-1.848 4.913-4.422 4.769-7.899-0.104-1.608-0.468-3.188-1.077-4.679 3.16-1.312 7.227-2.034 12.42-1.425 11.13 1.307 13.33 8.25 12.91 11.17-0.423 2.925-2.759 4.513-3.53 5.004s-1.032 0.654-0.96 1.005c0.094 0.515 0.469 0.492 1.123 0.397 0.91-0.162 5.843-2.358 6.054-7.736 0.352-6.875-6.198-14.38-17.77-14.31v4e-3zm-85.85 28.94c-3.693 4.021-8.837 5.541-11.06 4.256-2.381-1.38-1.448-7.321 3.088-11.57 2.759-2.597 6.312-5.005 8.674-6.479 0.5367-0.328 1.33-0.793 2.29-1.379 0.1625-0.095 0.257-0.14 0.257-0.14 0.189-0.113 0.378-0.234 0.5632-0.351 1.659 6.081 0.068 11.43-3.814 15.67zm26.89-18.29c-1.285 3.137-3.976 11.15-5.613 10.71-1.398-0.378-2.267-6.456-0.279-12.46 1.005-3.016 3.137-6.615 4.373-8.017 2.01-2.245 4.233-2.993 4.769-2.079 0.681 1.191-2.456 9.888-3.25 11.85zm22.19 10.62c-0.537 0.28-1.051 0.465-1.285 0.325-0.163-0.091 0.234-0.465 0.234-0.465s2.782-2.993 3.882-4.346c0.631-0.798 1.379-1.735 2.173-2.786v0.303c0 3.579-3.458 5.986-5.004 6.969zm17.11-3.904c-0.397-0.28-0.325-1.217 1.005-4.139 0.518-1.145 1.731-3.061 3.814-4.913 0.234 0.752 0.396 1.474 0.374 2.154-0.023 4.513-3.251 6.199-5.193 6.898z" fill="url(#paint2_linear)"/>
  <path d="m155.6 17v44.23c0 8.91 7.259 15.93 16.17 15.93l44.23-0.0112v-2l-60.4-58.15z" fill="#282828" opacity=".25"/>
  <path d="m155.6 15v44.23c0 8.91 7.259 15.93 16.17 15.93l44.23-0.0112-60.4-60.15z" fill="url(#paint3_linear)"/>
  <defs>
    <linearGradient id="paint0_linear" x1="39" x2="39" y1="15" y2="240.2" gradientUnits="userSpaceOnUse">
      <stop stop-color="#fb4934" offset="1e-7"/>
      <stop stop-color="#fb4934" offset=".5"/>
      <stop stop-color="#cc241d" offset="1"/>
    </linearGradient>
    <linearGradient id="paint1_linear" x1="39" x2="39" y1="15" y2="240.2" gradientUnits="userSpaceOnUse">
      <stop stop-color="#fb4934" offset="1e-7"/>
      <stop stop-color="#cc241d" offset="1"/>
    </linearGradient>
    <linearGradient id="paint2_linear" x1="64" x2="64" y1="80" y2="176" gradientUnits="userSpaceOnUse">
      <stop stop-color="#fb4934" offset="1e-7"/>
      <stop stop-color="#cc241d" offset="1"/>
    </linearGradient>
    <linearGradient id="paint3_linear" x1="155.6" x2="155.6" y1="15" y2="75.16" gradientUnits="userSpaceOnUse">
      <stop stop-color="#fb4934" offset="1e-7"/>
      <stop stop-color="#cc241d" offset="1"/>
    </linearGradient>
  </defs>
</svg>
